!!!OTL: Liu xiu
!!!ARE: Asia, China,ÿHunan Huarong
!! I, 521
!!!SCT: C2183
!!!YEM: Copyright 1995, estate of Helmut Schaffrath.
**kern
*ICvox
*Ivox
*M2/4
*k[]
*C:
{8a
8g
8a
8cc
=1
2g
=2
8cc
8ee
16dd
16cc
8a
=3
2cc}
=4
{8a
4g
8a
=5
8cc
8ee
8dd
8cc
=6
8a
16a
16cc
16a
16g
8e
=7
2g}
==
!!!AGN: Xiaodiao, Macheng diao
!!!ONB: ESAC (Essen Associative Code) Database: SENGANSU
!!!AMT: simple duple
!!!AIN: vox
!!!EED: Helmut Schaffrath
!!!EEV: 1.0
*-
